svg/view_carousel_outline.svg

<svg xmlns="http://www.w3.org/2000/svg" viewBox="0 0 24 24"><path d="M2 6h4v11H2zm5 13h10V4H7zM9 6h6v11H9zm9 0h4v11h-4z"/></svg>

<?xml version="1.0" encoding="UTF-8"?><!DOCTYPE svg PUBLIC "-//W3C//DTD SVG 1.1//EN" "http://www.w3.org/Graphics/SVG/1.1/DTD/svg11.dtd"><svg xmlns="http://www.w3.org/2000/svg" xmlns:xlink="http://www.w3.org/1999/xlink" version="1.1" id="mdi-view-carousel-outline" width="24" height="24" viewBox="0 0 24 24"><path d="M2 6H6V17H2V6M7 19H17V4H7V19M9 6H15V17H9V6M18 6H22V17H18V6Z" /></svg>
